X:1735
T:the Recovery
A:Wyresdale, Lancashire
B:E and J Winder, 1835-41
L:1/8
M:2/4
O:England
Z:Richard Robinson 
%%TUNEURL: http://www.leeds.ac.uk/music/Info/RRTuneBk/gettune/00001283.html
%%ID:00001283
K:C
GcGc | (d/c/d/e/) dd | gfdB           | (c/B/c/d/) cc | GcGc | (d/B/d/e/) dd | gfdB | cec2 H::
gfeB | cecG          | FF (F/E/F/G/)  | (F2E)z        | gfdB | cecG | FE/F/ G/F/E/D/ | C2z2 ::
ee/e/ ee | e3f | edcB | (c/B/c/d/) e2 | dd/d/ dd | d3e | dcBA | G2z2 |]
